X: 3171
T: DUNBLANE
C: Jos Lowe
Q: "Strathspey."
R: Strathspey.
%R: strathspey
B: James Kerr "Merry Melodies" v.3 p.20 #171
Z: 2016 John Chambers <jc:trillian.mit.edu>
M: C
L: 1/8
K: Bb
uF |\
vB>vcud>ue f<d d>uf | g>uab>g f<d d>c |\
B>cd>e f<d b>g | f<d c>d B3 :|
|: uf |\
b>ag>f b<f f>d | e>dc>B A<c c>f |\
b>ag>f b<f g>b | f<d c>d B3 :|

%%sep 1 1 500
%%sep 1 1 500

